X: 171
T: Maureen from Gibberland
M: 2/4
K: D
fe \
|"D" d2A2 F2A2 |d3c d2f2 |"A" e3d c2d2 | (e2f2 g2)fg|
| "D"a2f2 "A"e2c2 |"G" dedB "D"A3F |"G" G2B2 "A" ABAG |"D" F2D2 D2 :|
|:"D" f3e f2d2 |"G" g2g2 g2z2 |"D" f3e f2a2 |"Em" g2f2 "A"e2fg |
| "D"a2f2 "A"g2c2|"G"dedB"D" A3F| "G"G2B2 "A"ABAG |F2D2 "D"D2 :|
